X: 115
T: Dieduan qiao
L: 1/8
M: 2/4
K: G
A2A2 [I:setbarnb 1]| 
B A G E | 
A3B | 
A3z | 
d2e d | 
c B d B | 
A2A B | 
A GE2 | 
G2G2 | 
A G A B | 
G3A | 
G2z2 | 
e g e d | 
c2d2 | 
e g e d | 
c B d B | 
A2A B | 
A GE2 | 
G2G2 | 
E G E G | 
A2z2 | 
B d B A | 
G AB2 | 
d B A G | 
E3G | 
E DB,2 | 
D2D2 | 
E D E G | 
D3E | 
D4 |]

@@@ Tune index: 8989
